X:4
T:Miners of Wicklow. Roose.0718,The
M:6/8
L:1/8
Q:3/8=110
B:J.Roose MS, Manchester 1850
Z:Village Music Project, Steve Mansfield 2019
K:F
F | ABc cd_e | dBd cAc | dBG GBG | cAF FAF |
ABc cd_e | dBd cAc | def gec | f3- f2 :|
|: b | afa afa | geg geg | afa afa | bgb bgb |
afa afa | gec cfe | def gec | f3- f2 :|

